T: Burren, The
M: 4/4
L: 1/8
K: Dmaj
A3 B AFDF | AFAd ~f3 g | afef dB ~B2 | dBAF FEDF |A3 B AFDF | AFAd ~f3 g | afef dB ~B2 | Adfe d2 :|fded BAFA | dcdf ~a3 f | gefd edBc | dBAF FEDF |A3 B AFDF | AFAd ~f3 g | afef dB ~B2 | Adfe d2 :|(alternate possible endings ~ | Adfe de | / | A2 fe d2 | / | Agfe d2 |)
